Oxford/img/camp/London.svg

<svg width="354" height="550" fill="none" xmlns="http://www.w3.org/2000/svg"><circle cx="88.861" cy="94.86" r="11.5" transform="rotate(-165 88.86 94.86)" stroke="#CD142B" stroke-opacity=".53" stroke-width="2"/><circle cx="159.185" cy="12.185" r="8.5" transform="rotate(-165 159.185 12.185)" stroke="#00237C" stroke-opacity=".54" stroke-width="2"/><circle cx="177.148" cy="278.467" r="158.796" transform="rotate(-6.794 177.148 278.467)" fill="#BFE1FF"/><g clip-path="url(#clip0)"><path d="M194.945 426.772c81.905-9.758 140.392-84.065 130.635-165.97-9.758-81.906-84.066-140.393-165.971-130.635-81.905 9.757-140.392 84.065-130.635 165.97 9.758 81.905 84.065 140.392 165.971 130.635z" fill="#BFE1FF"/><path d="M325.579 260.802c-.01-.083-.019-.166-.03-.248l-82.417-64.871-124.396 10.831-51.295 116.609 48.993 38.563-1.744 2.062 80.096 63.043.158-.019c81.906-9.758 140.393-84.065 130.635-165.97z" fill="#87C7FF"/><path d="M189.797 383.562c-57.948 6.904-110.71-34.624-117.613-92.573-6.903-57.948 34.625-110.709 92.573-117.613 57.949-6.904 110.71 34.624 117.614 92.573 6.903 57.949-34.625 110.71-92.574 117.613zm-20.761-174.269c-38.144 4.544-65.479 39.273-60.935 77.417 4.544 38.144 39.274 65.479 77.418 60.935 38.143-4.544 65.479-39.273 60.935-77.417-4.545-38.144-39.274-65.479-77.418-60.935z" fill="#FF475A"/><path d="M164.758 173.376l-.17.023 4.279 35.917.17-.023c38.143-4.544 72.873 22.791 77.417 60.935 4.544 38.144-22.791 72.873-60.935 77.418l-.17.018 4.279 35.917.17-.018c57.948-6.904 99.477-59.665 92.573-117.614-6.904-57.948-59.665-99.476-117.613-92.573z" fill="#F03049"/><path d="M60.025 260.869l227.089-27.054 7.416 62.255-227.088 27.053-7.417-62.254z" fill="#4A7AFF"/><path d="M173.398 247.362l113.714-13.547 7.417 62.255-113.714 13.547-7.417-62.255z" fill="#0053BF"/><path d="M80.049 307.678l-3.78-31.72 9.607-1.145 2.782 23.35 12.032-1.433.997 8.37-21.638 2.578zm20.941-18.556c-1.162-9.749 5.607-17.308 15.404-18.475 9.796-1.167 18.151 4.59 19.313 14.339 1.161 9.749-5.608 17.308-15.404 18.475-9.797 1.167-18.152-4.59-19.313-14.339zm24.967-2.974c-.527-4.423-3.942-7.585-8.555-7.036-4.613.55-7.19 4.426-6.663 8.849.527 4.422 3.942 7.584 8.555 7.035 4.613-.55 7.19-4.425 6.663-8.848zm36.363 11.729l-13.613-14.681 1.915 16.074-9.607 1.145-3.779-31.721 9.892-1.178 12.824 13.713-1.791-15.028 9.607-1.144 3.779 31.721-9.227 1.099z" fill="#fff"/><path d="M187.077 262.757l-11.679 1.391 3.779 31.72 11.727-1.396c9.939-1.185 16.673-7.823 15.466-17.952-1.207-10.13-9.306-14.953-19.293-13.763zm2.782 23.35l-4.565.544-1.785-14.98 4.613-.55c5.136-.612 7.989 2.28 8.499 6.56.476 3.995-1.959 7.854-6.762 8.426zm18.228-9.744c-1.161-9.749 5.608-17.308 15.404-18.475 9.797-1.167 18.152 4.59 19.313 14.339 1.162 9.749-5.607 17.308-15.404 18.475-9.796 1.167-18.151-4.59-19.313-14.339zm24.968-2.974c-.527-4.423-3.942-7.585-8.555-7.035-4.613.549-7.19 4.425-6.663 8.848.526 4.422 3.942 7.585 8.555 7.035 4.613-.55 7.19-4.425 6.663-8.848zm36.363 11.729l-13.613-14.68 1.915 16.074-9.607 1.144-3.779-31.72 9.892-1.179 12.823 13.713-1.79-15.027 9.606-1.145 3.779 31.721-9.226 1.099z" fill="#E9EDF5"/></g><circle cx="176.682" cy="278.328" r="139.941" transform="rotate(-6.794 176.682 278.328)" stroke="#fff" stroke-width="5" stroke-dasharray="15 15"/><circle cx="185.5" cy="537.5" r="11.5" stroke="#CD142B" stroke-opacity=".53" stroke-width="2"/><circle cx="272.141" cy="462.141" r="6.831" transform="rotate(-165 272.141 462.141)" stroke="#00237C" stroke-opacity=".54" stroke-width="2"/><path fill-rule="evenodd" clip-rule="evenodd" d="M281 73l19-19 19 19-19 19-19-19z" fill="#CD142B"/><defs><clipPath id="clip0"><path fill="#fff" transform="rotate(-6.794 1250.954 -21.326)" d="M0 0h298.703v298.703H0z"/></clipPath></defs></svg>

<svg width="354" height="550" viewBox="0 0 354 550" fill="none" xmlns="http://www.w3.org/2000/svg">
<circle cx="88.8605" cy="94.8599" r="11.5" transform="rotate(-165 88.8605 94.8599)" stroke="#CD142B" stroke-opacity="0.53" stroke-width="2"/>
<circle cx="159.185" cy="12.1855" r="8.5" transform="rotate(-165 159.185 12.1855)" stroke="#00237C" stroke-opacity="0.54" stroke-width="2"/>
<circle cx="177.148" cy="278.467" r="158.796" transform="rotate(-6.79381 177.148 278.467)" fill="#BFE1FF"/>
<g clip-path="url(#clip0)">
<path d="M194.945 426.772C276.85 417.014 335.337 342.707 325.58 260.802C315.822 178.896 241.514 120.409 159.609 130.167C77.704 139.924 19.2168 214.232 28.9744 296.137C38.732 378.042 113.039 436.529 194.945 426.772Z" fill="#BFE1FF"/>
<path d="M325.579 260.802C325.569 260.719 325.56 260.636 325.549 260.554L243.132 195.683L118.736 206.514L67.4408 323.123L116.434 361.686L114.69 363.748L194.786 426.791L194.944 426.772C276.85 417.014 335.337 342.707 325.579 260.802Z" fill="#87C7FF"/>
<path d="M189.797 383.562C131.849 390.466 79.0878 348.938 72.1842 290.989C65.2805 233.041 106.809 180.28 164.757 173.376C222.706 166.472 275.467 208 282.371 265.949C289.274 323.898 247.746 376.659 189.797 383.562ZM169.036 209.293C130.892 213.837 103.557 248.566 108.101 286.71C112.645 324.854 147.375 352.189 185.519 347.645C223.662 343.101 250.998 308.372 246.454 270.228C241.909 232.084 207.18 204.749 169.036 209.293Z" fill="#FF475A"/>
<path d="M164.758 173.376C164.701 173.383 164.645 173.392 164.588 173.399L168.867 209.316C168.924 209.309 168.98 209.3 169.037 209.293C207.18 204.749 241.91 232.084 246.454 270.228C250.998 308.372 223.663 343.101 185.519 347.646C185.462 347.652 185.406 347.657 185.349 347.664L189.628 383.581C189.685 383.574 189.741 383.569 189.798 383.563C247.746 376.659 289.275 323.898 282.371 265.949C275.467 208.001 222.706 166.473 164.758 173.376Z" fill="#F03049"/>
<path d="M60.0254 260.869L287.114 233.815L294.53 296.07L67.442 323.123L60.0254 260.869Z" fill="#4A7AFF"/>
<path d="M173.398 247.362L287.112 233.815L294.529 296.07L180.815 309.617L173.398 247.362Z" fill="#0053BF"/>
<path d="M80.0485 307.678L76.2695 275.958L85.8762 274.813L88.658 298.163L100.69 296.73L101.687 305.1L80.0485 307.678Z" fill="white"/>
<path d="M100.99 289.122C99.8283 279.373 106.597 271.814 116.394 270.647C126.19 269.48 134.545 275.237 135.707 284.986C136.868 294.735 130.099 302.294 120.303 303.461C110.506 304.628 102.151 298.871 100.99 289.122ZM125.957 286.148C125.43 281.725 122.015 278.563 117.402 279.112C112.789 279.662 110.212 283.538 110.739 287.961C111.266 292.383 114.681 295.545 119.294 294.996C123.907 294.446 126.484 290.571 125.957 286.148Z" fill="white"/>
<path d="M162.32 297.877L148.707 283.196L150.622 299.27L141.015 300.415L137.236 268.694L147.128 267.516L159.952 281.229L158.161 266.201L167.768 265.057L171.547 296.778L162.32 297.877Z" fill="white"/>
<path d="M187.077 262.757L175.398 264.148L179.177 295.868L190.904 294.472C200.843 293.287 207.577 286.649 206.37 276.52C205.163 266.39 197.064 261.567 187.077 262.757ZM189.859 286.107L185.294 286.651L183.509 271.671L188.122 271.121C193.258 270.509 196.111 273.401 196.621 277.681C197.097 281.676 194.662 285.535 189.859 286.107Z" fill="#E9EDF5"/>
<path d="M208.087 276.363C206.926 266.614 213.695 259.055 223.491 257.888C233.288 256.721 241.643 262.478 242.804 272.227C243.966 281.976 237.197 289.535 227.4 290.702C217.604 291.869 209.249 286.112 208.087 276.363ZM233.055 273.389C232.528 268.966 229.113 265.804 224.5 266.354C219.887 266.903 217.31 270.779 217.837 275.202C218.363 279.624 221.779 282.787 226.392 282.237C231.005 281.687 233.582 277.812 233.055 273.389Z" fill="#E9EDF5"/>
<path d="M269.418 285.118L255.805 270.438L257.72 286.512L248.113 287.656L244.334 255.936L254.226 254.757L267.049 268.47L265.259 253.443L274.865 252.298L278.644 284.019L269.418 285.118Z" fill="#E9EDF5"/>
</g>
<circle cx="176.682" cy="278.328" r="139.941" transform="rotate(-6.79381 176.682 278.328)" stroke="white" stroke-width="5" stroke-dasharray="15 15"/>
<circle cx="185.5" cy="537.5" r="11.5" stroke="#CD142B" stroke-opacity="0.53" stroke-width="2"/>
<circle cx="272.141" cy="462.141" r="6.83081" transform="rotate(-165 272.141 462.141)" stroke="#00237C" stroke-opacity="0.54" stroke-width="2"/>
<path fill-rule="evenodd" clip-rule="evenodd" d="M281 73L300 54L319 73L300 92L281 73Z" fill="#CD142B"/>
<defs>
<clipPath id="clip0">
<rect width="298.703" height="298.703" fill="white" transform="translate(11.3066 147.834) rotate(-6.79381)"/>
</clipPath>
</defs>
</svg>
